X:1
T:St. Euphrasia, 11.8.11.8 D
T:St. Euphrasia, 11.8.11.8 D
T:Alfred Arthur Graley, 1869
T:Public Domain Courtesy of the Cyber Hymnal™
C:Alfred Arthur Graley, 1869
Z:Public Domain
Z:Courtesy of the Cyber Hymnal™
%%score 1 2
L:1/8
Q:1/4=80
M:6/8
K:C
V:1 treble 
V:2 bass 
V:1
 ([CE]/[DF]/) | [EG]>[FA][EG] [Ge]>[Fd][Ec] | [Ac][GB][FA] [EG]2 [EG] | %3
 [EG]>[FA][EG] [DF][EG][DF] | [CE]3- [CE]2 ([CE]/[DF]/) | [EG]>[FA][EG] [Ge]>[Fd][Ec] | %6
 [Ac][GB][FA] [EG]2 [EG] | [EG]>[FA][EG] [EG][FA][DB] | [Ec]3- [Ec]2 [EG] | %9
 [EG][CE][EG] [Ec]2 [CE]/[CE]/ | [B,G][B,D][DF] [CE]2 [EG] | [Ec][EG][CE] [CE][CE][C^F] | %12
 [B,G]3- [B,G]2 ([CE]/[DF]/) | [EG]>[FA][EG] [Ge]>[Fd][Ec] | [Ac][GB][FA] [EG]2 [EG] | %15
 [EG]>[FA][EG] [EG][FA][DB] | [Ec]3- [Ec]2 |] %17
V:2
 C, | C,>C,C, C,>C,C, | F,F,F, C,2 C, | G,>G,G, G,,G,,G,, | C,3- C,2 C, | C,>C,C, C,>C,C, | %6
 F,F,F, C,2 C, | G,>G,G, G,,G,,G,, | C,3- C,2 C, | C,C,C, C,2 C,/C,/ | G,,G,,G,, C,2 C, | %11
 C,C,C, A,,A,,D, | G,,3- G,,2 C, | C,>C,C, C,>C,C, | F,F,F, C,2 C, | G,>G,G, G,,G,,G,, | %16
 C,3- C,2 |] %17

